src/components/icon/images/asda-close.svg

<svg height="32" viewBox="0 0 32 32" width="32" xmlns="http://www.w3.org/2000/svg"><path d="m16 17.4142136-6.4246212 6.4246212c-.19526215.1952621-.51184464.1952621-.70710678 0l-.70710678-.7071068c-.19526215-.1952622-.19526215-.5118447 0-.7071068l6.42462116-6.4246212-6.42462116-6.4246212c-.19526215-.19526215-.19526215-.51184464 0-.70710678l.70710678-.70710678c.19526214-.19526215.51184463-.19526215.70710678 0l6.4246212 6.42462116 6.4246212-6.42462116c.1952621-.19526215.5118446-.19526215.7071068 0l.7071068.70710678c.1952621.19526214.1952621.51184463 0 .70710678l-6.4246212 6.4246212 6.4246212 6.4246212c.1952621.1952621.1952621.5118446 0 .7071068l-.7071068.7071068c-.1952622.1952621-.5118447.1952621-.7071068 0z" fill="#3d3d3d" fill-rule="evenodd"/></svg>

<?xml version="1.0" encoding="UTF-8"?>
<svg width="32px" height="32px" viewBox="0 0 32 32" version="1.1" xmlns="http://www.w3.org/2000/svg" xmlns:xlink="http://www.w3.org/1999/xlink">
    <title>* / Exports / Icons / Basic / asda-close</title>
    <g id="*-/-Exports-/-Icons-/-Basic-/-asda-close" stroke="none" stroke-width="1" fill="none" fill-rule="evenodd">
        <path d="M16,17.4142136 L9.5753788,23.8388348 C9.38011665,24.0340969 9.06353416,24.0340969 8.86827202,23.8388348 L8.16116524,23.131728 C7.96590309,22.9364658 7.96590309,22.6198833 8.16116524,22.4246212 L14.5857864,16 L8.16116524,9.5753788 C7.96590309,9.38011665 7.96590309,9.06353416 8.16116524,8.86827202 L8.86827202,8.16116524 C9.06353416,7.96590309 9.38011665,7.96590309 9.5753788,8.16116524 L16,14.5857864 L22.4246212,8.16116524 C22.6198833,7.96590309 22.9364658,7.96590309 23.131728,8.16116524 L23.8388348,8.86827202 C24.0340969,9.06353416 24.0340969,9.38011665 23.8388348,9.5753788 L17.4142136,16 L23.8388348,22.4246212 C24.0340969,22.6198833 24.0340969,22.9364658 23.8388348,23.131728 L23.131728,23.8388348 C22.9364658,24.0340969 22.6198833,24.0340969 22.4246212,23.8388348 L16,17.4142136 Z" id="Shape" fill="#3D3D3D"></path>
    </g>
</svg>
